;FLAVOR:Marlin
;TIME:15859
;Filament used: 10.715m
;Layer height: 0.2
;MINX:37.2
;MINY:59.7
;MINZ:0.2
;MAXX:197.8
;MAXY:175.3
;MAXZ:5.3
;Generated with Cura_SteamEngine 4.8.0
M140 S60
M105
M190 S60
M104 S200
M105
M109 S200
M82 ;absolute extrusion mode
; Ender 3 Custom Start G-code
G92 E0 ; Reset Extruder
G28 ; Home all axes
G29 ; Bed leveling
G1 Z2.0 F3000 ; Move Z Axis up little to prevent scratching of Heat Bed
G1 X0.1 Y20 Z0.3 F5000.0 ; Move to start position
G1 X0.1 Y200.0 Z0.3 F1500.0 E15 ; Draw the first line
G1 X0.4 Y200.0 Z0.3 F5000.0 ; Move to side a little
G1 X0.4 Y20 Z0.3 F1500.0 E30 ; Draw the second line
G92 E0 ; Reset Extruder
G1 Z2.0 F3000 ; Move Z Axis up little to prevent scratching of Heat Bed
G1 X5 Y20 Z0.3 F5000.0 ; Move over to prevent blob squish
G92 E0
G92 E0
G1 F2700 E-5
;LAYER_COUNT:25
;LAYER:0
M107
G1 F300 Z0.5
G0 F6000 X40.824 Y60.988 Z0.5
;TYPE:SKIRT
G1 F300 Z0.2
G1 F2700 E0
G1 F1500 X41.504 Y60.587 E0.02626
G1 X42.222 Y60.257 E0.05254
G1 X42.969 Y60.002 E0.07879
G1 X43.738 Y59.823 E0.10505
G1 X44.522 Y59.723 E0.13134
G1 X45.117 Y59.7 E0.15114
G1 X189.883 Y59.7 E4.96608
G1 X190.672 Y59.74 E4.99236
G1 X191.452 Y59.859 E5.0186
G1 X192.217 Y60.057 E5.04488
G1 X192.957 Y60.331 E5.07113
G1 X193.666 Y60.679 E5.0974
G1 X194.337 Y61.097 E5.12369
G1 X194.961 Y61.58 E5.14994
G1 X195.398 Y61.985 E5.16975
G1 X195.515 Y62.102 E5.17526
G1 X196.045 Y62.688 E5.20154
G1 X196.512 Y63.324 E5.22778
G1 X196.913 Y64.004 E5.25404
G1 X197.243 Y64.722 E5.28032
G1 X197.498 Y65.469 E5.30657
G1 X197.677 Y66.238 E5.33283
G1 X197.777 Y67.022 E5.35912
G1 X197.8 Y67.617 E5.37892
G1 X197.8 Y167.383 E8.69715
G1 X197.76 Y168.172 E8.72343
G1 X197.641 Y168.952 E8.74967
G1 X197.443 Y169.717 E8.77596
G1 X197.169 Y170.457 E8.8022
G1 X196.821 Y171.166 E8.82847
G1 X196.403 Y171.837 E8.85476
G1 X195.92 Y172.461 E8.88101
G1 X195.515 Y172.898 E8.90083
G1 X195.398 Y173.015 E8.90633
G1 X194.812 Y173.545 E8.93261
G1 X194.176 Y174.012 E8.95885
G1 X193.496 Y174.413 E8.98511
G1 X192.778 Y174.743 E9.01139
G1 X192.031 Y174.998 E9.03764
G1 X191.262 Y175.177 E9.06391
G1 X190.478 Y175.277 E9.09019
G1 X189.883 Y175.3 E9.11
G1 X45.117 Y175.3 E13.92493
G1 X44.328 Y175.26 E13.95121
G1 X43.548 Y175.141 E13.97745
G1 X42.783 Y174.943 E14.00374
G1 X42.043 Y174.669 E14.02998
G1 X41.334 Y174.321 E14.05625
G1 X40.663 Y173.903 E14.08254
G1 X40.039 Y173.42 E14.10879
G1 X39.602 Y173.015 E14.12861
G1 X39.485 Y172.898 E14.13411
G1 X38.955 Y172.312 E14.16039
G1 X38.488 Y171.676 E14.18663
G1 X38.087 Y170.996 E14.21289
G1 X37.757 Y170.278 E14.23917
G1 X37.502 Y169.531 E14.26542
G1 X37.323 Y168.762 E14.29169
G1 X37.223 Y167.978 E14.31797
G1 X37.2 Y167.383 E14.33778
G1 X37.2 Y67.617 E17.65601
G1 X37.24 Y66.828 E17.68228
G1 X37.359 Y66.048 E17.70853
G1 X37.557 Y65.283 E17.73481
G1 X37.831 Y64.543 E17.76105
G1 X38.179 Y63.834 E17.78732
G1 X38.597 Y63.163 E17.81362
G1 X39.08 Y62.539 E17.83986
G1 X39.485 Y62.102 E17.85968
G1 X39.602 Y61.985 E17.86518
G1 X40.188 Y61.455 E17.89146
G1 X40.824 Y60.988 E17.91771
G0 F6000 X41.078 Y61.3
G1 F1500 X41.743 Y60.914 E17.94328
G1 X42.445 Y60.599 E17.96887
G1 X43.176 Y60.359 E17.99446
G1 X43.927 Y60.196 E18.02002
G1 X44.692 Y60.112 E18.04562
G1 X45.117 Y60.1 E18.05976
G1 X189.883 Y60.1 E22.8747
G1 X190.651 Y60.14 E22.90027
G1 X191.411 Y60.259 E22.92586
G1 X192.154 Y60.457 E22.95143
G1 X192.873 Y60.731 E22.97703
G1 X193.559 Y61.078 E23.0026
G1 X194.206 Y61.494 E23.02818
G1 X194.806 Y61.975 E23.05376
G1 X195.116 Y62.267 E23.06792
G1 X195.233 Y62.384 E23.07342
G1 X195.747 Y62.956 E23.099
G1 X196.2 Y63.578 E23.12459
G1 X196.586 Y64.243 E23.15017
G1 X196.901 Y64.945 E23.17576
G1 X197.141 Y65.676 E23.20135
G1 X197.304 Y66.427 E23.22691
G1 X197.388 Y67.192 E23.25251
G1 X197.4 Y67.617 E23.26665
G1 X197.4 Y167.383 E26.58488
G1 X197.36 Y168.151 E26.61046
G1 X197.241 Y168.911 E26.63604
G1 X197.043 Y169.654 E26.66162
G1 X196.769 Y170.373 E26.68721
G1 X196.422 Y171.059 E26.71278
G1 X196.006 Y171.706 E26.73836
G1 X195.525 Y172.306 E26.76394
G1 X195.233 Y172.616 E26.7781
G1 X195.116 Y172.733 E26.78361
G1 X194.544 Y173.247 E26.80918
G1 X193.922 Y173.7 E26.83478
G1 X193.257 Y174.086 E26.86035
G1 X192.555 Y174.401 E26.88594
G1 X191.824 Y174.641 E26.91153
G1 X191.073 Y174.804 E26.93709
G1 X190.308 Y174.888 E26.96269
G1 X189.883 Y174.9 E26.97683
G1 X45.117 Y174.9 E31.79177
G1 X44.349 Y174.86 E31.81735
G1 X43.589 Y174.741 E31.84293
G1 X42.846 Y174.543 E31.86851
G1 X42.127 Y174.269 E31.8941
G1 X41.441 Y173.922 E31.91967
G1 X40.794 Y173.506 E31.94525
G1 X40.194 Y173.025 E31.97083
G1 X39.884 Y172.733 E31.98499
G1 X39.767 Y172.616 E31.9905
G1 X39.253 Y172.044 E32.01607
G1 X38.8 Y171.422 E32.04167
G1 X38.414 Y170.757 E32.06724
G1 X38.099 Y170.055 E32.09283
G1 X37.859 Y169.324 E32.11842
G1 X37.696 Y168.573 E32.14398
G1 X37.612 Y167.808 E32.16958
G1 X37.6 Y167.383 E32.18372
G1 X37.6 Y67.617 E35.50195
G1 X37.64 Y66.849 E35.52753
G1 X37.759 Y66.089 E35.55311
G1 X37.957 Y65.346 E35.57869
G1 X38.231 Y64.627 E35.60428
G1 X38.578 Y63.941 E35.62985
G1 X38.994 Y63.294 E35.65543
G1 X39.475 Y62.694 E35.68101
G1 X39.767 Y62.384 E35.69518
G1 X39.884 Y62.267 E35.70068
G1 X40.456 Y61.753 E35.72626
G1 X41.078 Y61.3 E35.75185
G0 F6000 X41.33 Y61.613
G1 F1500 X41.98 Y61.242 E35.77674
G1 X42.666 Y60.943 E35.80163
G1 X43.38 Y60.719 E35.82652
G1 X44.113 Y60.572 E35.85139
G1 X45.117 Y60.5 E35.88486
G1 X189.883 Y60.5 E40.6998
G1 X190.63 Y60.54 E40.72468
G1 X191.368 Y60.659 E40.74954
G1 X192.09 Y60.857 E40.77445
G1 X192.786 Y61.13 E40.79931
G1 X193.449 Y61.477 E40.8242
G1 X194.072 Y61.892 E40.8491
G1 X194.833 Y62.55 E40.88256
G1 X194.95 Y62.667 E40.88806
G1 X195.45 Y63.224 E40.91296
G1 X195.887 Y63.83 E40.93781
G1 X196.258 Y64.48 E40.9627
G1 X196.557 Y65.166 E40.98759
G1 X196.781 Y65.88 E41.01248
G1 X196.928 Y66.613 E41.03734
G1 X197 Y67.617 E41.07082
G1 X197 Y167.383 E44.38905
G1 X196.96 Y168.13 E44.41393
G1 X196.841 Y168.868 E44.4388
G1 X196.643 Y169.59 E44.4637
G1 X196.37 Y170.286 E44.48856
G1 X196.023 Y170.949 E44.51345
G1 X195.608 Y171.572 E44.53835
G1 X194.95 Y172.333 E44.57181
G1 X194.833 Y172.45 E44.57731
G1 X194.276 Y172.95 E44.60221
G1 X193.67 Y173.387 E44.62706
G1 X193.02 Y173.758 E44.65195
G1 X192.334 Y174.057 E44.67684
G1 X191.62 Y174.281 E44.70173
G1 X190.887 Y174.428 E44.72659
G1 X189.883 Y174.5 E44.76007
G1 X45.117 Y174.5 E49.57501
G1 X44.37 Y174.46 E49.59989
G1 X43.632 Y174.341 E49.62475
G1 X42.91 Y174.143 E49.64965
G1 X42.214 Y173.87 E49.67452
G1 X41.551 Y173.523 E49.69941
G1 X40.928 Y173.108 E49.72431
G1 X40.167 Y172.45 E49.75777
G1 X40.05 Y172.333 E49.76327
G1 X39.55 Y171.776 E49.78817
G1 X39.113 Y171.17 E49.81302
G1 X38.742 Y170.52 E49.83791
G1 X38.443 Y169.834 E49.8628
G1 X38.219 Y169.12 E49.88769
G1 X38.072 Y168.387 E49.91255
G1 X38 Y167.383 E49.94603
G1 X38 Y67.617 E53.26426
G1 X38.04 Y66.87 E53.28914
G1 X38.159 Y66.132 E53.31401
G1 X38.357 Y65.41 E53.33891
G1 X38.63 Y64.714 E53.36377
G1 X38.977 Y64.051 E53.38866
G1 X39.392 Y63.428 E53.41356
G1 X40.05 Y62.667 E53.44702
G1 X40.167 Y62.55 E53.45252
G1 X40.724 Y62.05 E53.47742
G1 X41.33 Y61.613 E53.50227
G0 F6000 X41.582 Y61.926
G1 F1500 X42.216 Y61.572 E53.52642
G1 X42.885 Y61.289 E53.55058
G1 X43.581 Y61.081 E53.57474
G1 X44.296 Y60.951 E53.59891
G1 X45.117 Y60.9 E53.62627
G1 X189.883 Y60.9 E58.44121
G1 X190.608 Y60.94 E58.46536
G1 X191.325 Y61.059 E58.48953
G1 X192.024 Y61.257 E58.51369
G1 X192.697 Y61.53 E58.53785
G1 X193.336 Y61.875 E58.562
G1 X193.933 Y62.289 E58.58617
G1 X194.55 Y62.833 E58.61353
G1 X194.667 Y62.95 E58.61903
G1 X195.151 Y63.491 E58.64317
G1 X195.574 Y64.082 E58.66735
G1 X195.928 Y64.716 E58.6915
G1 X196.211 Y65.385 E58.71566
G1 X196.419 Y66.081 E58.73982
G1 X196.549 Y66.796 E58.76399
G1 X196.6 Y67.617 E58.79135
G1 X196.6 Y167.383 E62.10958
G1 X196.56 Y168.108 E62.13373
G1 X196.441 Y168.825 E62.1579
G1 X196.243 Y169.524 E62.18207
G1 X195.97 Y170.197 E62.20622
G1 X195.625 Y170.836 E62.23037
G1 X195.211 Y171.433 E62.25454
G1 X194.667 Y172.05 E62.2819
G1 X194.55 Y172.167 E62.2874
G1 X194.009 Y172.651 E62.31154
G1 X193.418 Y173.074 E62.33572
G1 X192.784 Y173.428 E62.35987
G1 X192.115 Y173.711 E62.38403
G1 X191.419 Y173.919 E62.40819
G1 X190.704 Y174.049 E62.43236
G1 X189.883 Y174.1 E62.45972
G1 X45.117 Y174.1 E67.27466
G1 X44.392 Y174.06 E67.29881
G1 X43.675 Y173.941 E67.32298
G1 X42.976 Y173.743 E67.34714
G1 X42.303 Y173.47 E67.3713
G1 X41.664 Y173.125 E67.39545
G1 X41.067 Y172.711 E67.41962
G1 X40.45 Y172.167 E67.44697
G1 X40.333 Y172.05 E67.45248
G1 X39.849 Y171.509 E67.47662
G1 X39.426 Y170.918 E67.50079
G1 X39.072 Y170.284 E67.52495
G1 X38.789 Y169.615 E67.54911
G1 X38.581 Y168.919 E67.57327
G1 X38.451 Y168.204 E67.59744
G1 X38.4 Y167.383 E67.6248
G1 X38.4 Y67.617 E70.94303
G1 X38.44 Y66.892 E70.96718
G1 X38.559 Y66.175 E70.99135
G1 X38.757 Y65.476 E71.01551
G1 X39.03 Y64.803 E71.03967
G1 X39.375 Y64.164 E71.06382
G1 X39.789 Y63.567 E71.08799
G1 X40.333 Y62.95 E71.11535
G1 X40.45 Y62.833 E71.12085
G1 X40.991 Y62.349 E71.14499
G1 X41.582 Y61.926 E71.16916
G0 F6000 X41.833 Y62.241
G1 F1500 X42.451 Y61.903 E71.19259
G1 X43.102 Y61.636 E71.216
G1 X43.78 Y61.446 E71.23941
G1 X44.475 Y61.333 E71.26283
G1 X45.117 Y61.3 E71.28422
G1 X189.883 Y61.3 E76.09915
G1 X190.586 Y61.34 E76.12257
G1 X191.28 Y61.459 E76.14599
G1 X191.955 Y61.657 E76.16939
G1 X192.604 Y61.929 E76.19279
G1 X193.218 Y62.274 E76.21622
G1 X193.789 Y62.685 E76.23962
G1 X194.267 Y63.116 E76.26102
G1 X194.384 Y63.233 E76.26653
G1 X194.853 Y63.758 E76.28994
G1 X195.259 Y64.333 E76.31335
G1 X195.597 Y64.951 E76.33678
G1 X195.864 Y65.602 E76.36018
G1 X196.054 Y66.28 E76.3836
G1 X196.167 Y66.975 E76.40702
G1 X196.2 Y67.617 E76.4284
G1 X196.2 Y167.383 E79.74663
G1 X196.16 Y168.086 E79.77005
G1 X196.041 Y168.78 E79.79347
G1 X195.843 Y169.455 E79.81687
G1 X195.571 Y170.104 E79.84027
G1 X195.226 Y170.718 E79.8637
G1 X194.815 Y171.289 E79.8871
G1 X194.384 Y171.767 E79.90851
G1 X194.267 Y171.884 E79.91401
G1 X193.742 Y172.353 E79.93742
G1 X193.167 Y172.759 E79.96084
G1 X192.549 Y173.097 E79.98426
G1 X191.898 Y173.364 E80.00767
G1 X191.22 Y173.554 E80.03109
G1 X190.525 Y173.667 E80.0545
G1 X189.883 Y173.7 E80.07589
G1 X45.117 Y173.7 E84.89082
G1 X44.414 Y173.66 E84.91424
G1 X43.72 Y173.541 E84.93766
G1 X43.045 Y173.343 E84.96106
G1 X42.396 Y173.071 E84.98446
G1 X41.782 Y172.726 E85.00789
G1 X41.211 Y172.315 E85.03129
G1 X40.733 Y171.884 E85.05269
G1 X40.616 Y171.767 E85.0582
G1 X40.147 Y171.242 E85.08161
G1 X39.741 Y170.667 E85.10502
G1 X39.403 Y170.049 E85.12845
G1 X39.136 Y169.398 E85.15185
G1 X38.946 Y168.72 E85.17527
G1 X38.833 Y168.025 E85.19869
G1 X38.8 Y167.383 E85.22007
G1 X38.8 Y67.617 E88.5383
G1 X38.84 Y66.914 E88.56172
G1 X38.959 Y66.22 E88.58514
G1 X39.157 Y65.545 E88.60854
G1 X39.429 Y64.896 E88.63195
G1 X39.774 Y64.282 E88.65537
G1 X40.185 Y63.711 E88.67877
G1 X40.616 Y63.233 E88.70018
G1 X40.733 Y63.116 E88.70568
G1 X41.258 Y62.647 E88.72909
G1 X41.833 Y62.241 E88.75251
G0 F6000 X42.083 Y62.557
G1 F1500 X42.683 Y62.235 E88.77515
G1 X43.317 Y61.986 E88.79781
G1 X43.976 Y61.813 E88.82047
G1 X44.65 Y61.719 E88.8431
G1 X45.117 Y61.7 E88.85865
G1 X189.883 Y61.7 E93.67359
G1 X190.563 Y61.74 E93.69624
G1 X191.233 Y61.859 E93.71888
G1 X191.885 Y62.056 E93.74153
G1 X192.509 Y62.328 E93.76417
G1 X193.097 Y62.672 E93.78683
G1 X193.641 Y63.082 E93.80948
G1 X193.984 Y63.399 E93.82502
G1 X194.101 Y63.516 E93.83052
G1 X194.554 Y64.025 E93.85319
G1 X194.943 Y64.583 E93.87581
G1 X195.265 Y65.183 E93.89846
G1 X195.514 Y65.817 E93.92111
G1 X195.687 Y66.476 E93.94377
G1 X195.781 Y67.15 E93.96641
G1 X195.8 Y67.617 E93.98195
G1 X195.8 Y167.383 E97.30018
G1 X195.76 Y168.063 E97.32284
G1 X195.641 Y168.733 E97.34547
G1 X195.444 Y169.385 E97.36813
G1 X195.172 Y170.009 E97.39077
G1 X194.828 Y170.597 E97.41342
G1 X194.418 Y171.141 E97.43608
G1 X194.101 Y171.484 E97.45162
G1 X193.984 Y171.601 E97.45712
G1 X193.475 Y172.054 E97.47978
G1 X192.917 Y172.443 E97.50241
G1 X192.317 Y172.765 E97.52505
G1 X191.683 Y173.014 E97.54771
G1 X191.024 Y173.187 E97.57037
G1 X190.35 Y173.281 E97.593
G1 X189.883 Y173.3 E97.60855
G1 X45.117 Y173.3 E102.42349
G1 X44.437 Y173.26 E102.44614
G1 X43.767 Y173.141 E102.46878
G1 X43.115 Y172.944 E102.49143
G1 X42.491 Y172.672 E102.51407
G1 X41.903 Y172.328 E102.53673
G1 X41.359 Y171.918 E102.55938
G1 X41.016 Y171.601 E102.57492
G1 X40.899 Y171.484 E102.58042
G1 X40.446 Y170.975 E102.60309
G1 X40.057 Y170.417 E102.62571
G1 X39.735 Y169.817 E102.64836
G1 X39.486 Y169.183 E102.67101
G1 X39.313 Y168.524 E102.69367
G1 X39.219 Y167.85 E102.71631
G1 X39.2 Y167.383 E102.73185
G1 X39.2 Y67.617 E106.05008
G1 X39.24 Y66.937 E106.07274
G1 X39.359 Y66.267 E106.09537
G1 X39.556 Y65.615 E106.11803
G1 X39.828 Y64.991 E106.14067
G1 X40.172 Y64.403 E106.16333
G1 X40.582 Y63.859 E106.18598
G1 X40.899 Y63.516 E106.20152
G1 X41.016 Y63.399 E106.20702
G1 X41.525 Y62.946 E106.22968
G1 X42.083 Y62.557 E106.25231
G0 F6000 X42.332 Y62.874
G1 F1500 X42.914 Y62.57 E106.27415
G1 X43.529 Y62.339 E106.296
G1 X44.168 Y62.184 E106.31787
G1 X45.117 Y62.1 E106.34955
G1 X189.883 Y62.1 E111.16449
G1 X190.539 Y62.14 E111.18635
G1 X191.185 Y62.259 E111.2082
G1 X191.812 Y62.456 E111.23006
G1 X192.41 Y62.728 E111.25191
G1 X192.971 Y63.07 E111.27376
G1 X193.701 Y63.682 E111.30544
G1 X193.818 Y63.799 E111.31095
G1 X194.254 Y64.291 E111.33281
G1 X194.626 Y64.832 E111.35465
G1 X194.93 Y65.414 E111.37649
G1 X195.161 Y66.029 E111.39834
G1 X195.316 Y66.668 E111.42021
G1 X195.4 Y67.617 E111.45189
G1 X195.4 Y167.383 E114.77012
G1 X195.36 Y168.039 E114.79198
G1 X195.241 Y168.685 E114.81383
G1 X195.044 Y169.312 E114.83569
G1 X194.772 Y169.91 E114.85754
G1 X194.43 Y170.471 E114.87939
G1 X193.818 Y171.201 E114.91108
G1 X193.701 Y171.318 E114.91658
G1 X193.209 Y171.754 E114.93845
G1 X192.668 Y172.126 E114.96028
G1 X192.086 Y172.43 E114.98212
G1 X191.471 Y172.661 E115.00397
G1 X190.832 Y172.816 E115.02584
G1 X189.883 Y172.9 E115.05753
G1 X45.117 Y172.9 E119.87247
G1 X44.461 Y172.86 E119.89432
G1 X43.815 Y172.741 E119.91617
G1 X43.188 Y172.544 E119.93803
G1 X42.59 Y172.272 E119.95988
G1 X42.029 Y171.93 E119.98173
G1 X41.299 Y171.318 E120.01342
G1 X41.182 Y171.201 E120.01892
G1 X40.746 Y170.709 E120.04079
G1 X40.374 Y170.168 E120.06262
G1 X40.07 Y169.586 E120.08446
G1 X39.839 Y168.971 E120.10631
G1 X39.684 Y168.332 E120.12818
G1 X39.6 Y167.383 E120.15987
G1 X39.6 Y67.617 E123.4781
G1 X39.64 Y66.961 E123.49996
G1 X39.759 Y66.315 E123.52181
G1 X39.956 Y65.688 E123.54367
G1 X40.228 Y65.09 E123.56552
G1 X40.57 Y64.529 E123.58737
G1 X41.182 Y63.799 E123.61905
G1 X41.299 Y63.682 E123.62456
G1 X41.791 Y63.246 E123.64642
G1 X42.332 Y62.874 E123.66826
G0 F6000 X42.579 Y63.192
G1 F1500 X43.143 Y62.906 E123.68929
G1 X43.738 Y62.694 E123.7103
G1 X44.356 Y62.558 E123.73135
G1 X45.117 Y62.5 E123.75673
G1 X189.883 Y62.5 E128.57167
G1 X190.514 Y62.54 E128.5927
G1 X191.135 Y62.659 E128.61373
G1 X191.735 Y62.856 E128.63473
G1 X192.307 Y63.127 E128.65578
G1 X192.839 Y63.467 E128.67678
G1 X193.419 Y63.964 E128.70219
G1 X193.536 Y64.081 E128.70769
G1 X193.953 Y64.556 E128.72871
G1 X194.308 Y65.079 E128.74974
G1 X194.594 Y65.643 E128.77077
G1 X194.806 Y66.238 E128.79178
G1 X194.942 Y66.856 E128.81282
G1 X195 Y67.617 E128.83821
G1 X195 Y167.383 E132.15644
G1 X194.96 Y168.014 E132.17747
G1 X194.841 Y168.635 E132.1985
G1 X194.644 Y169.235 E132.2195
G1 X194.373 Y169.807 E132.24055
G1 X194.033 Y170.339 E132.26155
G1 X193.536 Y170.919 E132.28696
G1 X193.419 Y171.036 E132.29246
G1 X192.944 Y171.453 E132.31348
G1 X192.421 Y171.808 E132.33451
G1 X191.857 Y172.094 E132.35554
G1 X191.262 Y172.306 E132.37655
G1 X190.644 Y172.442 E132.3976
G1 X189.883 Y172.5 E132.42298
G1 X45.117 Y172.5 E137.23792
G1 X44.486 Y172.46 E137.25895
G1 X43.865 Y172.341 E137.27998
G1 X43.265 Y172.144 E137.30098
G1 X42.693 Y171.873 E137.32203
G1 X42.161 Y171.533 E137.34303
G1 X41.581 Y171.036 E137.36844
G1 X41.464 Y170.919 E137.37394
G1 X41.047 Y170.444 E137.39496
G1 X40.692 Y169.921 E137.41599
G1 X40.406 Y169.357 E137.43702
G1 X40.194 Y168.762 E137.45803
G1 X40.058 Y168.144 E137.47907
G1 X40 Y167.383 E137.50446
